X:1
T:Title
%%score { ( 1 3 ) | 2 }
L:1/8
Q:1/4=100
M:4/4
K:C
V:1 treble nm="Grand Piano"
V:3 treble 
V:2 bass 
V:1
 [EG][EG][EG][FA] [EG]2 [Ec][Fd] | [Ge][Ge][Ge]d c2 [EG]2 | A2 AA c2 A2 | [FA]2 [EG]2 [EG]4 | %4
w: L.~H.~Parthemore * * * * * *||||
 [EG][EG][EG][FA] [EG]2 [Ec][Fd] | [Ge][Ge][Ge][Fd] [Ec]2 [EG]2 | AAcA [EG]2 c2 | %7
w: |||
[M:3/4] c2 B2 [Ec]2 |[M:1/4] B>c |[M:4/4] d6 z2 | c4 z4 | A6 z2 |[M:9/8] B2 c- c d2- d[EG][Ec] | %13
w: ||||||
[M:4/4] [Ge]2 [Ge][Ge] [Ge][Af][Ge][Gd] | c4 z4 | GGGG BBAB |[M:3/4] [Ec]6 |] %17
w: ||||
V:2
 [C,C][C,C][C,C][C,C] [C,C]2 [C,G,][C,G,] | [C,C][C,C][E,C][K:treble][G,B,F] [CE]2[K:bass] [C,C]2 | %2
 [F,CF]2 [F,CF][F,CF] [F,A,F]2 [F,CF]2 | [C,C]2 [C,C]2 [C,C]4 | %4
 [C,C][C,C][C,C][C,C] [C,C]2 [C,G,][C,G,] | [C,C][C,C][C,C][C,C] [C,G,]2 [C,C]2 | %6
 [F,CF][F,CF][F,A,F][F,CF] [C,C]2 [E,CE]2 |[M:3/4][K:treble] [G,CE]2 [G,F]2[K:bass] [C,G,]2 | %8
[M:1/4] z2 |[M:4/4] z2 [G,B,][G,B,] [G,B,][K:treble][G,DG][G,CG][G,B,F] | %10
 [C,C][C,G,][C,G,][C,G,] [C,C]2 z2 | z2 [F,C][F,C] [D,D][D,D][D,A,][D,D] | %12
[M:9/8][K:treble] [G,DG]2 [G,CG]- [G,CG] [G,B,G]2- [G,B,G][K:bass][C,C][C,C] | %13
[M:4/4] [C,C]2 [C,C][C,C] [C,C][C,C][C,C][E,C] | %14
 [F,A,F][F,A,][F,A,][F,A,][K:treble] [F,CF]2 [F,A,F][F,CF] | %15
 [G,CE][G,CE][G,CE][G,CE] [G,F][G,F][G,F][G,F] |[M:3/4][K:bass] [C,G,]6 |] %17
V:3
 x8 | x8 | x8 | x8 | x8 | x8 | x8 |[M:3/4] x6 |[M:1/4] x2 |[M:4/4] z2 GG Gfed | EEEE [EG]2 GG | %11
 z2 FF ^F[FA][Fd][Fc] |[M:9/8] x9 |[M:4/4] x8 | z FFF A2 cA | x8 |[M:3/4] x6 |] %17

